style-guide/assets/xd-icons-map-tiny.svg

<?xml version="1.0" encoding="UTF-8"?>
<svg width="12px" height="12px" viewBox="0 0 12 12" version="1.1" xmlns="http://www.w3.org/2000/svg" xmlns:xlink="http://www.w3.org/1999/xlink">
    <!-- Generator: Sketch 51.3 (57544) - http://www.bohemiancoding.com/sketch -->
    <title>map</title>
    <desc>Created with Sketch.</desc>
    <defs></defs>
    <g id="map" stroke="none" stroke-width="1" fill="none" fill-rule="evenodd">
        <path d="M10,9.21995157 L8,9.71895157 L8,2.78195157 L10,2.28095157 L10,9.21995157 Z M2,2.72095157 L4,2.05395157 L4,9.01195157 C3.929,9.01195157 3.862,9.02295157 3.793,9.03695157 C3.756,9.04595157 3.72,9.03895157 3.684,9.05195157 L2,9.61295157 L2,2.72095157 Z M5,2.38795157 L6.684,2.94895157 C6.716,2.95995157 6.749,2.95695157 6.781,2.96495157 C6.824,2.97495157 6.865,2.98195157 6.909,2.98595157 C6.939,2.98895157 6.97,3.00095157 7,3.00095157 L7,9.94695157 L5,9.27995157 L5,2.38795157 Z M11.615,0.211951575 C11.372,0.0229515746 11.055,-0.0460484254 10.757,0.0309515746 L7.04,0.958951575 L4.316,0.0519515746 C4.279,0.0389515746 4.242,0.0449515746 4.204,0.0369515746 C4.136,0.0229515746 4.071,0.0119515746 4,0.0119515746 C3.93,0.0119515746 3.864,0.0229515746 3.796,0.0369515746 C3.759,0.0449515746 3.721,0.0389515746 3.684,0.0519515746 L0.684,1.05195157 C0.275,1.18795157 0,1.56995157 0,1.99995157 L0,10.9999516 C0,11.3219516 0.154,11.6229516 0.416,11.8119516 C0.588,11.9359516 0.793,11.9999516 1,11.9999516 C1.106,11.9999516 1.213,11.9839516 1.316,11.9489516 L4,11.0539516 L6.684,11.9489516 C6.789,11.9839516 6.896,12.0009516 7,12.0009516 C7.006,12.0009516 7.012,11.9979516 7.018,11.9979516 C7.092,11.9959516 7.167,11.9899516 7.243,11.9699516 L11.243,10.9699516 C11.687,10.8589516 12,10.4589516 12,9.99995157 L12,0.999951575 C12,0.692951575 11.858,0.401951575 11.615,0.211951575 Z" id="Fill-1" fill="#000000"></path>
    </g>
</svg>

<svg viewBox="0 0 12 12" xmlns="http://www.w3.org/2000/svg">
  <path d="M10 9.22l-2 .499V2.782l2-.501V9.22zM2 2.721l2-.667v6.958c-.071 0-.138.011-.207.025-.037.009-.073.002-.109.015L2 9.613V2.721zm3-.333l1.684.561c.032.011.065.008.097.016.043.01.084.017.128.021.03.003.061.015.091.015v6.946L5 9.28V2.388zM11.615.212a.995.995 0 0 0-.858-.181L7.04.959 4.316.052C4.279.039 4.242.045 4.204.037A.99.99 0 0 0 4 .012a.998.998 0 0 0-.204.025c-.037.008-.075.002-.112.015l-3 1A.999.999 0 0 0 0 2v9a1 1 0 0 0 1.316.949L4 11.054l2.684.895a1 1 0 0 0 .316.052l.018-.003a.976.976 0 0 0 .225-.028l4-1A1 1 0 0 0 12 10V1c0-.307-.142-.598-.385-.788z"/>
</svg>
